file/fs1.svg

<svg clip-rule="evenodd" fill-rule="evenodd" stroke-linejoin="round" stroke-miterlimit="1.41421" viewBox="0 0 560 400" xmlns="http://www.w3.org/2000/svg"><g fill-rule="nonzero"><path d="m100.00048728 110.85628472h359.99944464v178.29110128h-359.99944464z" fill="#19315a" stroke-width="2.41672"/><path d="m154.6 16.642c-3.725.004-7.45.017-11.175.008-4.287 4.24-8.612 8.431-12.862 12.689-.225.23-.138.577-.163.864.013 2.228-.012 4.458.013 6.687 5.375.005 10.75.018 16.112-.005-.15.234-.337.458-.537.649-1.038.978-2.013 2.017-3.063 2.981-.075 1.366-.012 2.734-.037 4.101.012 10.913-.025 21.828.025 32.743 7.625-.033 15.25.014 22.875-.025 0-20.219-.013-40.438 0-60.654-3.725-.036-7.45-.04-11.188-.038zm-122.234.003c-3.403-.003-6.806 0-10.207.033.009 20.22 0 40.438.002 60.658 6.762.018 13.524.019 20.288-.002-.045-6.866-.011-13.734-.015-20.6-1.083-1.023-2.036-2.168-3.149-3.158.251-.028.503-.045.756-.053 7.373.01 14.745-.007 22.118.007.329-.017.677.043.995-.07.066-4.335-.008-8.67.037-13.006-6.905-.054-13.811-.025-20.716-.016-.077-3.617-.069-7.239-.006-10.855 7.015.015 14.034.053 21.046-.02 2.496-2.62 5.173-5.07 7.666-7.695 1.739-1.743 3.518-3.445 5.23-5.213-11.279-.017-22.556-.001-33.833-.007-3.404.01-6.809.001-10.212-.003zm71.162 0c-5.965-.004-11.932-.001-17.896.033-2.735 2.827-5.591 5.537-8.354 8.337-1.734 1.729-3.528 3.403-5.198 5.188-.074 3.006-.001 6.023-.044 9.036.089 1.027-.088 2.059.01 3.087.103 1.209-.006 2.425.057 3.634 2.431 2.584 5.038 5.009 7.48 7.588 6.741.028 13.485 0 20.227.017.436-.05.646.413.949.641.237.307.711.529.667.973-.003 2.422-.006 4.842 0 7.265-.555.532-1.106 1.065-1.621 1.634-.091.046-.275.133-.366.179-6.343-.022-12.689-.031-19.034.005-3.444 3.551-7.019 6.978-10.517 10.477.01.866.011 1.734-.003 2.602 14.355.015 28.708.004 43.061.003 2.868-2.89 5.789-5.73 8.665-8.614.002-6.927.015-13.857-.002-20.784-1.08-1.281-2.363-2.393-3.53-3.6-1.388-1.305-2.684-2.703-4.075-4.007-6.825.006-13.649.005-20.474.002-.447-.599-1.379-1.006-1.266-1.867.03-2.392-.037-4.783.033-7.173.514-.475.984-.994 1.484-1.482.151-.17.345-.244.579-.219 7.351.001 14.702.004 22.054 0 1.66-1.549 3.312-3.113 4.97-4.664.1-2.756.01-5.527.04-8.291-5.965.013-11.93.004-17.897 0z" fill="#fff" transform="matrix(1.933376 0 0 1.933376 98.3112 109.283)"/></g></svg>

<?xml version="1.0" encoding="UTF-8" standalone="no"?>
<!DOCTYPE svg PUBLIC "-//W3C//DTD SVG 1.1//EN" "http://www.w3.org/Graphics/SVG/1.1/DTD/svg11.dtd">
<svg width="100%" height="100%" viewBox="0 0 560 400" version="1.1" xmlns="http://www.w3.org/2000/svg" xmlns:xlink="http://www.w3.org/1999/xlink" xml:space="preserve" xmlns:serif="http://www.serif.com/" style="fill-rule:evenodd;clip-rule:evenodd;stroke-linejoin:round;stroke-miterlimit:1.41421;">
    <g transform="matrix(2.41672,0,0,2.41672,98.3112,109.283)">
        <rect x="0.699" y="0.651" width="148.962" height="73.774" style="fill:rgb(25,49,90);fill-rule:nonzero;"/>
        <g transform="matrix(0.8,0,0,0.8,0,0)">
            <path d="M154.6,16.642C150.875,16.646 147.15,16.659 143.425,16.65C139.138,20.89 134.813,25.081 130.563,29.339C130.338,29.569 130.425,29.916 130.4,30.203C130.413,32.431 130.388,34.661 130.413,36.89C135.788,36.895 141.163,36.908 146.525,36.885C146.375,37.119 146.188,37.343 145.988,37.534C144.95,38.512 143.975,39.551 142.925,40.515C142.85,41.881 142.913,43.249 142.888,44.616C142.9,55.529 142.863,66.444 142.913,77.359C150.538,77.326 158.163,77.373 165.788,77.334C165.788,57.115 165.775,36.896 165.788,16.68C162.063,16.644 158.338,16.64 154.6,16.642ZM32.366,16.645C28.963,16.642 25.56,16.645 22.159,16.678C22.168,36.898 22.159,57.116 22.161,77.336C28.923,77.354 35.685,77.355 42.449,77.334C42.404,70.468 42.438,63.6 42.434,56.734C41.351,55.711 40.398,54.566 39.285,53.576C39.536,53.548 39.788,53.531 40.041,53.523C47.414,53.533 54.786,53.516 62.159,53.53C62.488,53.513 62.836,53.573 63.154,53.46C63.22,49.125 63.146,44.79 63.191,40.454C56.286,40.4 49.38,40.429 42.475,40.438C42.398,36.821 42.406,33.199 42.469,29.583C49.484,29.598 56.503,29.636 63.515,29.563C66.011,26.943 68.688,24.493 71.181,21.868C72.92,20.125 74.699,18.423 76.411,16.655C65.132,16.638 53.855,16.654 42.578,16.648C39.174,16.658 35.769,16.649 32.366,16.645ZM103.528,16.645C97.563,16.641 91.596,16.644 85.632,16.678C82.897,19.505 80.041,22.215 77.278,25.015C75.544,26.744 73.75,28.418 72.08,30.203C72.006,33.209 72.079,36.226 72.036,39.239C72.125,40.266 71.948,41.298 72.046,42.326C72.149,43.535 72.04,44.751 72.103,45.96C74.534,48.544 77.141,50.969 79.583,53.548C86.324,53.576 93.068,53.548 99.81,53.565C100.246,53.515 100.456,53.978 100.759,54.206C100.996,54.513 101.47,54.735 101.426,55.179C101.423,57.601 101.42,60.021 101.426,62.444C100.871,62.976 100.32,63.509 99.805,64.078C99.714,64.124 99.53,64.211 99.439,64.257C93.096,64.235 86.75,64.226 80.405,64.262C76.961,67.813 73.386,71.24 69.888,74.739C69.898,75.605 69.899,76.473 69.885,77.341C84.24,77.356 98.593,77.345 112.946,77.344C115.814,74.454 118.735,71.614 121.611,68.73C121.613,61.803 121.626,54.873 121.609,47.946C120.529,46.665 119.246,45.553 118.079,44.346C116.691,43.041 115.395,41.643 114.004,40.339C107.179,40.345 100.355,40.344 93.53,40.341C93.083,39.742 92.151,39.335 92.264,38.474C92.294,36.082 92.227,33.691 92.297,31.301C92.811,30.826 93.281,30.307 93.781,29.819C93.932,29.649 94.126,29.575 94.36,29.6C101.711,29.601 109.062,29.604 116.414,29.6C118.074,28.051 119.726,26.487 121.384,24.936C121.484,22.18 121.394,19.409 121.424,16.645C115.459,16.658 109.494,16.649 103.527,16.645Z" style="fill:white;fill-rule:nonzero;"/>
        </g>
    </g>
</svg>
